suite-common/icons/assets/icons/csv.svg

<svg xmlns="http://www.w3.org/2000/svg" viewBox="0 0 24 24">
  <path fill-rule="evenodd" d="M5.44 1.077 3.62 1.1l-.343.165c-.579.278-.933.667-1.169 1.283l-.088.232-.012 9.18c-.007 5.862.003 9.433.029 9.879.038.653.049.715.16.941.238.484.626.859 1.143 1.106l.24.114h16.84l.24-.114a2.36 2.36 0 0 0 1.113-1.066c.219-.439.207.016.207-8.04V7.3l-.09-.262a2.7 2.7 0 0 0-.24-.487c-.251-.378-4.347-4.867-4.614-5.056a3 3 0 0 0-.716-.366c-.165-.05-8.038-.087-10.88-.052m13.089 4.12c.809.887 1.46 1.628 1.448 1.648-.012.019-.639.035-1.393.035h-1.372l-.169-.122c-.299-.217-.299-.217-.312-1.978l-.013-1.56.171.182c.094.1.832.907 1.64 1.795M8.7 10.841c.314.045.89.297 1.07.469.188.18.144.33-.205.7-.174.184-.259.188-.529.02-.183-.114-.249-.132-.536-.144-.415-.017-.656.076-.92.358-.308.33-.438.743-.439 1.396-.002.892.383 1.497 1.045 1.645.276.061.526.01.919-.191.357-.181.431-.167.673.13.252.309.265.388.097.562a2.1 2.1 0 0 1-.815.477c-.332.096-1.073.097-1.4 0-.834-.245-1.427-.877-1.667-1.778-.064-.238-.082-.428-.082-.865 0-.671.078-1.019.338-1.511.386-.73 1.016-1.153 1.911-1.284.182-.026.257-.024.54.016m4.2.112c.383.132.771.377.804.507a.35.35 0 0 1-.037.206c-.1.193-.389.494-.474.494-.044 0-.204-.055-.356-.121-.541-.238-.977-.246-1.25-.023-.127.103-.185.357-.113.492.054.101.425.294 1.166.607.678.286.954.483 1.16.828l.14.234v.502c0 .448-.01.522-.096.696-.213.433-.738.805-1.304.925-.704.148-1.641-.034-2.179-.424-.233-.168-.268-.266-.168-.46.119-.228.418-.536.521-.536.048 0 .226.07.397.156.525.266.879.336 1.218.242.211-.058.383-.217.414-.38.062-.332-.026-.406-1.001-.84-.716-.318-.93-.446-1.145-.685-.296-.328-.335-.43-.351-.916-.014-.427-.01-.451.107-.68.255-.502.781-.852 1.427-.952.276-.042.799.018 1.12.128m2.292.147c.029.088.268 1.005.532 2.037s.493 1.901.51 1.931c.018.033.174-.504.381-1.316.302-1.186.623-2.413.69-2.642.045-.154.131-.19.452-.19.172 0 .395.011.497.025.182.025.186.029.186.17 0 .208-.441 1.764-1.106 3.905-.318 1.022-.393 1.205-.507 1.236s-1.061.03-1.174 0c-.103-.028-.181-.2-.41-.909-.301-.93-1.155-3.802-1.209-4.061-.073-.356-.047-.372.605-.357l.501.011z"/>
</svg>

<svg xmlns="http://www.w3.org/2000/svg" viewBox="0 0 24 24"><path d="M5.440 1.077 L 3.620 1.100 3.277 1.265 C 2.698 1.543,2.344 1.932,2.108 2.548 L 2.020 2.780 2.008 11.960 C 2.001 17.822,2.011 21.393,2.037 21.839 C 2.075 22.492,2.086 22.554,2.197 22.780 C 2.435 23.264,2.823 23.639,3.340 23.886 L 3.580 24.000 12.000 24.000 L 20.420 24.000 20.660 23.886 C 21.157 23.649,21.545 23.277,21.773 22.820 C 21.992 22.381,21.980 22.836,21.980 14.780 L 21.980 7.300 21.890 7.038 C 21.840 6.895,21.732 6.675,21.650 6.551 C 21.399 6.173,17.303 1.684,17.036 1.495 C 16.827 1.347,16.515 1.188,16.320 1.129 C 16.155 1.079,8.282 1.042,5.440 1.077 M18.529 5.197 C 19.338 6.084,19.989 6.825,19.977 6.845 C 19.965 6.864,19.338 6.880,18.584 6.880 L 17.212 6.880 17.043 6.758 C 16.744 6.541,16.744 6.541,16.731 4.780 L 16.718 3.220 16.889 3.402 C 16.983 3.502,17.721 4.309,18.529 5.197 M8.700 10.841 C 9.014 10.886,9.590 11.138,9.770 11.310 C 9.958 11.490,9.914 11.640,9.565 12.010 C 9.391 12.194,9.306 12.198,9.036 12.030 C 8.853 11.916,8.787 11.898,8.500 11.886 C 8.085 11.869,7.844 11.962,7.580 12.244 C 7.272 12.574,7.142 12.987,7.141 13.640 C 7.139 14.532,7.524 15.137,8.186 15.285 C 8.462 15.346,8.712 15.295,9.105 15.094 C 9.462 14.913,9.536 14.927,9.778 15.224 C 10.030 15.533,10.043 15.612,9.875 15.786 C 9.689 15.979,9.346 16.179,9.060 16.263 C 8.728 16.359,7.987 16.360,7.660 16.263 C 6.826 16.018,6.233 15.386,5.993 14.485 C 5.929 14.247,5.911 14.057,5.911 13.620 C 5.911 12.949,5.989 12.601,6.249 12.109 C 6.635 11.379,7.265 10.956,8.160 10.825 C 8.342 10.799,8.417 10.801,8.700 10.841 M12.900 10.953 C 13.283 11.085,13.671 11.330,13.704 11.460 C 13.716 11.510,13.700 11.603,13.667 11.666 C 13.567 11.859,13.278 12.160,13.193 12.160 C 13.149 12.160,12.989 12.105,12.837 12.039 C 12.296 11.801,11.860 11.793,11.587 12.016 C 11.460 12.119,11.402 12.373,11.474 12.508 C 11.528 12.609,11.899 12.802,12.640 13.115 C 13.318 13.401,13.594 13.598,13.800 13.943 L 13.940 14.177 13.940 14.679 C 13.940 15.127,13.930 15.201,13.844 15.375 C 13.631 15.808,13.106 16.180,12.540 16.300 C 11.836 16.448,10.899 16.266,10.361 15.876 C 10.128 15.708,10.093 15.610,10.193 15.416 C 10.312 15.188,10.611 14.880,10.714 14.880 C 10.762 14.880,10.940 14.950,11.111 15.036 C 11.636 15.302,11.990 15.372,12.329 15.278 C 12.540 15.220,12.712 15.061,12.743 14.898 C 12.805 14.566,12.717 14.492,11.742 14.058 C 11.026 13.740,10.812 13.612,10.597 13.373 C 10.301 13.045,10.262 12.943,10.246 12.457 C 10.232 12.030,10.236 12.006,10.353 11.777 C 10.608 11.275,11.134 10.925,11.780 10.825 C 12.056 10.783,12.579 10.843,12.900 10.953 M15.192 11.100 C 15.221 11.188,15.460 12.105,15.724 13.137 C 15.988 14.169,16.217 15.038,16.234 15.068 C 16.252 15.101,16.408 14.564,16.615 13.752 C 16.917 12.566,17.238 11.339,17.305 11.110 C 17.350 10.956,17.436 10.920,17.757 10.920 C 17.929 10.920,18.152 10.931,18.254 10.945 C 18.436 10.970,18.440 10.974,18.440 11.115 C 18.440 11.323,17.999 12.879,17.334 15.020 C 17.016 16.042,16.941 16.225,16.827 16.256 C 16.714 16.286,15.766 16.286,15.653 16.256 C 15.550 16.228,15.472 16.056,15.243 15.347 C 14.942 14.417,14.088 11.545,14.034 11.286 C 13.961 10.930,13.987 10.914,14.639 10.929 L 15.140 10.940 15.192 11.100 " stroke="none" fill-rule="evenodd" fill="black"></path></svg>
